X: 37354
T: Slängpols Från Torp
R: mazurka
M: 3/4
K: Gmajor
|:d>c|B>G B>c d>B|c<e A2 a>g|f>d f>g a>f|g<b d2 d>c|
B>G B>c d>B|c<e A2 a>g|f>d f>g a<f|g2 G2:|
|:b>a|g>B d>G g>e|f<a A2 a>g|f>d f>g a>f|g<b B2 b>a|
g>B d>G|g>e f<a A2|a>g f>d f>g|a<f g2 G2:|

